X:2690
T:Caroline Quadrille,The. HSJJ.088
M:6/8
L:1/8
Q:110
S:HSJ Jackson,Wyresdale,Lancs.1823
R:Quadrille
O:England
A:Lancashire
H:1823
Z:Chris Partington.
K:D
A ded fed|age cAc|ded fed|ceee2A|ded fed|age cAc|!dfd cec|(e3{fe}d2)|
|A/-^G/|AAA ABc|defA2A/-^G/|AAA ABc|d3 def|!
g2ef2d|e2d cea|fed cdB|AFG ABc|ded fed|age cAc|!
ded fed|ceee2A|ded fed|age cAc|dfd cec|(e3{fe}d2)|]


